packages/design-assets/icons/16px/Trash.svg

<svg width="16" height="16" xmlns="http://www.w3.org/2000/svg"><path d="M16 5H0V3h4V1a1 1 0 0 1 1-1h6a1 1 0 0 1 1 1v2h4v2zM6 2v1h4V2H6zm6 5h2v8a1 1 0 0 1-1 1H3a1 1 0 0 1-1-1V7h2v7h8V7zM6 7h1v6H6V7zm3 0h1v6H9V7z" fill="#818F99" fill-rule="evenodd"/></svg>

<?xml version="1.0" encoding="UTF-8"?>
<svg width="16px" height="16px" viewBox="0 0 16 16" version="1.1" xmlns="http://www.w3.org/2000/svg" xmlns:xlink="http://www.w3.org/1999/xlink">
    <!-- Generator: Sketch 54.1 (76490) - https://sketchapp.com -->
    <title>Icons/16px/Trash</title>
    <desc>Created with Sketch.</desc>
    <g id="Icons/16px/Trash" stroke="none" stroke-width="1" fill="none" fill-rule="evenodd">
        <path d="M16,5 L0,5 L0,3 L4,3 L4,1 C4,0.448 4.447,0 5,0 L11,0 C11.553,0 12,0.448 12,1 L12,3 L16,3 L16,5 Z M6,2 L6,3 L10,3 L10,2 L6,2 Z M12,7 L14,7 L14,15 C14,15.552 13.553,16 13,16 L3,16 C2.447,16 2,15.552 2,15 L2,7 L4,7 L4,14 L12,14 L12,7 Z M6,7 L7,7 L7,13 L6,13 L6,7 Z M9,7 L10,7 L10,13 L9,13 L9,7 Z" id="i-16-trash" fill="#818F99"></path>
    </g>
</svg>
